X:1
T:Title
%%score { ( 1 3 4 ) | ( 2 5 ) }
L:1/8
M:4/4
K:Ab
V:1 treble nm="Grand Piano"
V:3 treble 
V:4 treble 
V:2 bass 
V:5 bass 
V:1
 z4 z2[Q:1/4=100] [CA]>[DB] | [Ec]2 [CA]2 [DF]2 [CE]2 | [CA]6 [EA]>[EG] | F2 A2 F2 A2 |[M:3/4] E6 | %5
[M:1/4] [CA]>[DB] |[M:4/4] z4 z2 e2 | [Fd]6 [Fd]>F | E2 c2 B3 c | %9
[M:11/16] [CA]/-[CA]/-[CA]/-[CA]/-[CA]/-[CA]/-[CA]/-[CA]-<[CA] |[M:3/8] EE>A |[M:4/4] G6 z2 | %12
 c6 z2 | B6 z2 | B6 z2 | [Ec]6 z2 | [Fd]6 z2 | z2 c4 z2 |[M:7/8] A-A-A- A- A3 |] %19
V:2
 z4 z2 [A,,E,]>[A,,E,] | [A,,A,]2 [A,,A,]2 [A,,A,]2 [A,,A,]2 | [A,,E,]6 [C,A,]>[C,A,] | %3
 [D,A,D]2 [D,F,D]2 [D,A,D]2 [F,A,D]2 |[M:3/4] [A,C]6 |[M:1/4] [A,,A,]>[A,,A,] | %6
[M:4/4] [A,,A,]2 [A,,E,]2 [A,,A,]2 [C,A,]2 | [D,A,]6 [D,A,]>[D,A,D] | %8
 [E,A,C]2 [E,A,E]2 [E,G,D]3 [E,G,E] | %9
[M:11/16] [A,,A,]/-[A,,A,]/-[A,,A,]/-[A,,A,]/-[A,,A,]/-[A,,A,]/-[A,,A,]/-[A,,A,]-<[A,,A,] | %10
[M:3/8] z3 |[M:4/4] z [E,B,] [E,B,]>[E,B,] [E,B,]2 [E,G,]2 | [A,E]2 [A,,A,]2 [A,,A,]2 z2 | %13
 [B,,G,]2 [B,,G,]2 [B,,F,]2 [B,,B,]2 | [E,G,D]2 [E,G,]2 [E,G,]2 C>D | [A,,A,]2 A,,2 z D [A,,A,]2 | %16
 [D,A,]2 D,2 D,2 [D,A,]>[D,A,D] | [E,A,C]2 [E,A,E]2 [E,G,]2 [E,B,D]2 |[M:7/8] z C B,2 A,3 |] %19
V:3
 x8 | x8 | x8 | x8 |[M:3/4] x6 |[M:1/4] x2 |[M:4/4] [Ec]2 [CA]2 [Ec]2 E_G | x8 | x8 | %9
[M:11/16] x11/2 |[M:3/8] x3 |[M:4/4] z E E>E z F z z/ d/ | z2 E2 E2 A>c | E2 E2 z A G>A | %14
 z2 D2 D2 A>B | z2 A,2 z B [CA]>[Ec] | z2 A,2 A,2 [Fd]>F | E2 z2 .E>B A>G |[M:7/8] [A,C]E D2 C3 |] %19
V:4
 x8 | x8 | x8 | x8 |[M:3/4] x6 |[M:1/4] x2 |[M:4/4] x8 | x8 | x8 |[M:11/16] x11/2 |[M:3/8] x3 | %11
[M:4/4] z4 D2 E2 | x8 | z4 =D2 D2 | x8 | z4 A,2 z2 | x8 | z4 z D z2 |[M:7/8] x7 |] %19
V:5
 x8 | x8 | x8 | x8 |[M:3/4] x6 |[M:1/4] x2 |[M:4/4] x8 | x8 | x8 |[M:11/16] x11/2 |[M:3/8] x3 | %11
[M:4/4] x8 | x8 | x8 | x8 | z4 A,,2 z2 | x8 | x8 |[M:7/8] A,,-A,,-A,,- A,,- A,,3 |] %19

